X:21
T: Boston Boy
S: Adam Steffey
S: MandoZine TablEdit Archives
Z: TablEdited by Steve Keating for MandoZine
L: 1/8
Q: 420
M: 4/4
K: C
 "First Break""C"[e2e2] d2 c2 e2 | eg ga ge dc | "G"BA G^F GA Bc | "C"dc cd c2 d2 |
 eg ed c2 e2 | eg ga ge dc | "G"BA GB AG EG | "C"DE C2 C2 d2 |
 eg ed cA c2 | eg ga ge dc | "G"BA G^F GA Bc | "C"dc cd c2 d2 |
 eg ed c2 e2 | eg ga ge dc | "G"BA GB AG EG | "C"DE C2 C2 G,B, |
 CB, CD EC DE | "F"FE FE FE D^F | "G"G^F GA Bc dB | "C"cA Gc AG FE |
 DC A,B, CD EG | "F"FE FE FE D^F | "G"G^F GA Bc dB | "C"cG FE C2 G,B, |
 CB, CD EC DE | "F"FE FE FA G^F | "G"G^F GA Bc dB | "C"cA Gc AG FE |
 DC A,B, CD EG | "F"FE FE FE D^F | "G"G^F GA Bc dB | "C"cG FE C2 [ec][ec] |
